X:1
T:Jesu, meine Freude
T:Tochter Zion, freue dich! Siegeschor aus dem Oratorium „Judas Maccabäus“ Deutscher Text von Friedrich Heinrich Ranke
T:Georg Friedrich Händel
C:J. S. Bach
%%score [ 1 2 3 4 ]
L:1/8
Q:1/4=126
M:4/4
K:G
V:1 treble nm="S"
V:2 treble nm="A"
V:3 treble-8 nm="T"
V:4 bass nm="B"
V:1
 d4 (B3 c) | d4 G4 | (ABcd c2) B2 | A8 | (Bcde d2) d2 | g4 d4 | (c2 B2 A3) G | G8!fine! | %8
w: Toch- ter _|Zi- on,|freu- * * * * e|dich!|Ja- * * * uch- ze|laut, Je-|ru- * * sa-|lem!|
w: Ho- si- *|an- na,|Da- * * * * vids|Sohn,|sei _ _ _ _ ge-|seg- net|dei- * * nem|Volk.|
w: Ho- si- *|an- na,|Da- * * * * vids|Sohn,|sei _ _ _ _ ge-|grü- ßet,|Kö- * * nig|mild.|
 (BABc B2) B2 | A4 G4 | (c2 B2 A2) G2 | F8 | (GFGA G2) G2 | e4 ^c4 | (d2 ed ^c3) d | d8!D.C.! |] %16
w: Sieh, _ _ _ _ dein|Kö- nig|kommt _ _ zu|dir,|ja, _ _ _ _ er|kommt, der|Frie- * * * de-|fürst.|
w: Grün- * * * * de|nun dein|ew'- * * ges|Reich,|Ho- * * * * si-|an- na|in * * * der|Höh'.|
w: E- * * * * wig|steht dein|Frie- * * dens-|thron,|du, _ _ _ _ des|ew'- gen|Va- * * * ters|Kind.|
V:2
 G4 (G3 F) | G4 D4 | (FGAB A2) G2 | F8 | G6 G2 | G4 G4 | (F2 G4) F2 | G8 | (GFGA G2) G2 | F4 E4 | %10
w: Toch- ter _|Zi- on,|freu- * * * * e|dich!|Jauch- ze|laut, Je-|ru- * sa-|lem!|Sieh, _ _ _ _ dein|Kö- nig|
w: Ho- si- *|an- na,|Da- * * * * vids|Sohn,|sei ge-|seg- net|dei- * nem|Volk.|Grün- * * * * de|nun dein|
w: Ho- si- *|an- na,|Da- * * * * vids|Sohn,|sei ge-|grü- ßet,|Kö- * nig|mild.|E- * * * * wig|steht dein|
 (A2 G2 F2) E2 | ^D8 | (E^DEF E2) E2 | G6 G2 | (F2 GF E2) A2 | A8 |] %16
w: kommt _ _ zu|dir,|ja, _ _ _ _ er|kommt, der|Frie- * * * de-|fürst.|
w: ew'- * * ges|Reich,|Ho- * * * * si-|an- na|in _ _ _ der|Höh'.|
w: Frie- * * dens-|thron,|du, _ _ _ _ des|ew'- gen|Va- * * * ters|Kind.|
V:3
 B4 (d3 c) | B4 d4 | (c2 A2 d2) d2 | d8 | d6 d2 | d4 B4 | (c2 d4) c2 | B8 | d6 d2 | c4 B4 | %10
w: Toch- ter _|Zi- on,|freu- * * e|dich!|Jauch- ze|laut, Je-|ru- * sa-|lem!|Sieh, dein|Kö- nig|
w: Ho- si- *|an- na,|Da- * * vids|Sohn,|sei ge-|seg- net|dei- * nem|Volk.|Grün- de|nun dein|
w: Ho- si- *|an- na,|Da- * * vids|Sohn,|sei ge-|grü- ßet,|Kö- * nig|mild.|E- wig|steht dein|
 (^d2 e2 c2) B2 | B8 | B6 B2 | A4 e4 | (d2 B2 e2) e2 | f8 |] %16
w: kommt _ _ zu|dir,|ja, er|kommt, der|Frie- * * de-|fürst.|
w: ew'- * * ges|Reich,|Ho- si-|an- na|in _ _ der|Höh'.|
w: Frie- * * dens-|thron,|du, des|ew'- gen|Va- * * ters|Kind.|
V:4
 G,4 (B,3 A,) | G,4 B,4 | (A,3 G, F,2) G,2 | D,8 | (G,A,B,C B,2) B,2 | B,4 G,4 | (A,2 B,C D2) D,2 | %7
w: Toch- ter _|Zi- on,|freu- * * e|dich!|Ja- * * * uch- ze|laut, Je-|ru- * * * sa-|
w: Ho- si- *|an- na,|Da- * * vids|Sohn,|sei _ _ _ _ ge-|seg- net|dei- * * * nem|
w: Ho- si- *|an- na,|Da- * * vids|Sohn,|sei _ _ _ _ ge-|grü- ßet,|Kö- * * * nig|
 G,8 | G,6 G,2 | D,4 E,4 | (F,2 G,2 A,2) E,2 | B,8 | E,6 D,2 | ^C,4 A,4 | (B,2 G,2 A,2) A,2 | %15
w: lem!|Sieh, dein|Kö- nig|kommt _ _ zu|dir,|ja, er|kommt, der|Frie- * * de-|
w: Volk.|Grün- de|nun dein|ew'- * * ges|Reich,|Ho- si-|an- na|in _ _ der|
w: mild.|E- wig|steht dein|Frie- * * dens-|thron,|du, des|ew'- gen|Va- * * ters|
 D,8 |] %16
w: fürst.|
w: Höh'.|
w: Kind.|

